scalable/status/dialog-error.svg

<?xml version="1.0" encoding="UTF-8" standalone="no"?>
<svg
   xmlns:dc="http://purl.org/dc/elements/1.1/"
   xmlns:cc="http://creativecommons.org/ns#"
   xmlns:rdf="http://www.w3.org/1999/02/22-rdf-syntax-ns#"
   xmlns:svg="http://www.w3.org/2000/svg"
   xmlns="http://www.w3.org/2000/svg"
   xmlns:sodipodi="http://sodipodi.sourceforge.net/DTD/sodipodi-0.dtd"
   xmlns:inkscape="http://www.inkscape.org/namespaces/inkscape"
   fill="#000000"
   height="48"
   viewBox="0 0 48 48"
   width="48"
   version="1.1"
   id="svg4"
   sodipodi:docname="dialog-error.svg"
   inkscape:version="0.92.3 (2405546, 2018-03-11)">
  <metadata
     id="metadata10">
    <rdf:RDF>
      <cc:Work
         rdf:about="">
        <dc:format>image/svg+xml</dc:format>
        <dc:type
           rdf:resource="http://purl.org/dc/dcmitype/StillImage" />
        <dc:title></dc:title>
      </cc:Work>
    </rdf:RDF>
  </metadata>
  <defs
     id="defs8" />
  <sodipodi:namedview
     pagecolor="#ffffff"
     bordercolor="#666666"
     borderopacity="1"
     objecttolerance="10"
     gridtolerance="10"
     guidetolerance="10"
     inkscape:pageopacity="0"
     inkscape:pageshadow="2"
     inkscape:window-width="1366"
     inkscape:window-height="686"
     id="namedview6"
     showgrid="false"
     showguides="true"
     inkscape:guide-bbox="true"
     inkscape:zoom="6.9532167"
     inkscape:cx="5.7129238"
     inkscape:cy="14.426889"
     inkscape:window-x="0"
     inkscape:window-y="28"
     inkscape:window-maximized="1"
     inkscape:current-layer="svg4">
    <sodipodi:guide
       position="24,24.610169"
       orientation="1,0"
       id="guide827"
       inkscape:locked="false" />
    <sodipodi:guide
       position="12.512195,23.586206"
       orientation="0,1"
       id="guide931"
       inkscape:locked="false" />
  </sodipodi:namedview>
  <path
     style="fill:#d40000;fill-opacity:1;stroke:none;stroke-width:0.63559324px;stroke-linecap:butt;stroke-linejoin:miter;stroke-opacity:1"
     d="M 31.888672 4.4960938 L 24 8.0761719 L 15.378906 4.7988281 L 12.267578 13.189453 L 3.921875 16.6875 L 7.5371094 24.982422 L 4.2246094 33.195312 L 12.496094 36.359375 L 16.111328 44.654297 L 24.525391 40.986328 L 32.621094 44.351562 L 35.902344 36.027344 L 44.078125 32.462891 L 40.462891 24.167969 L 43.775391 15.955078 L 35.503906 12.791016 L 31.888672 4.4960938 z M 15.859375 14.371094 C 16.311635 14.371094 16.764795 14.54511 17.109375 14.894531 L 24 21.882812 L 30.890625 14.894531 C 31.579783 14.195688 32.701469 14.195688 33.390625 14.894531 C 34.079784 15.593372 34.079784 16.728891 33.390625 17.427734 L 26.498047 24.416016 L 33.390625 31.404297 C 34.079784 32.103139 34.079784 33.24061 33.390625 33.939453 C 33.046047 34.288874 32.61442 34.462891 32.140625 34.462891 C 31.666828 34.462891 31.235203 34.288874 30.890625 33.939453 L 24 26.949219 L 17.109375 33.939453 C 16.764796 34.288874 16.333173 34.462891 15.859375 34.462891 C 15.38558 34.462891 14.953953 34.288874 14.609375 33.939453 C 13.920217 33.24061 13.920217 32.103139 14.609375 31.404297 L 21.501953 24.416016 L 14.609375 17.427734 C 13.920217 16.728891 13.920217 15.593372 14.609375 14.894531 C 14.953953 14.54511 15.407115 14.371094 15.859375 14.371094 z "
     id="path912" />
</svg>

<svg xmlns="http://www.w3.org/2000/svg" xmlns:xlink="http://www.w3.org/1999/xlink" height="48" width="48"><defs><linearGradient id="a"><stop offset="0" stop-opacity=".51"/><stop offset="1" stop-opacity=".01"/></linearGradient><linearGradient xlink:href="#a" id="b" gradientUnits="userSpaceOnUse" x1="11.01" y1="30.44" x2="46.55" y2="30.96"/></defs><path d="M31.89 4.5L24 8.08 15.38 4.8l-3.11 8.39-8.35 3.5 3.62 8.3-3.32 8.2 8.28 3.17 3.61 8.3 8.42-3.67 8.1 3.36 3.27-8.32 8.18-3.57-3.62-8.3 3.32-8.2-8.28-3.17z" fill="#c83737"/><path d="M22.45 41.89l2.08-.9 8.1 3.36 3.27-8.32 8.18-3.57-3.62-8.3.65-1.59-7.75-7.75L15 34.44z" fill="url(#b)"/><path d="M15.86 14.37c.45 0 .9.18 1.25.52l6.89 7 6.9-7c.68-.7 1.8-.7 2.5 0 .68.7.68 1.84 0 2.54l-6.9 6.99 6.9 6.98c.68.7.68 1.84 0 2.54-.35.35-.79.52-1.26.52s-.9-.17-1.25-.52l-6.89-7-6.9 7c-.34.35-.77.52-1.24.52s-.9-.17-1.25-.52a1.81 1.81 0 0 1 0-2.54l6.9-6.98-6.9-7a1.81 1.81 0 0 1 0-2.53c.34-.34.8-.52 1.25-.52z" fill="#fff"/></svg>
